X:16
T:Branle coup
R:Branle coup
M:C|
L:1/8
K:Am
A>B cc|BA G2|c>d ec|dd c2|A>B cc|BA G2|cc BA|AG A2"FIN"::
A/G/A/B/ cc|BA Gc|cB c2|A/G/A/B/ cc|BA GA|AG A2:|
%%footer $D   Galouvielle-MBe 2005 \nBranle coup France
